X:4946
L:1/8
M:3/4
K:F
"F" FE FG F2 | CF AC FA |"C7" G,B, EG, B,E |"F" FE FG F2 | FE FG F2 | CF AC FA |"C7" G,B, EG, B,E | 
"F" F4 z2 :|"C7" CG BC GB |"F" CF AC FA |"C7" CE GC EG |"F" FE FG F2 |"C7" CG BC GB |"F" CF AC FA | 
"C7" CE GC EG |"F" F4 z2 :|"Dm" AG AB A2 |"Am" EA cE Ac |"Gm" B,D GB,"C7" DG |"F" AG AB A2 | 
"Dm" AG AB A2 |"Am" EA cE Ac |"Gm" B,D GB,"C7" DG |"F" F4 z2 :|

